X: 6915
T: Cheers For The Nod
R: reel
M: 4/4
K: Dmajor
|d3c|:BFFE F2FE|FABF A2AA|B2BA B/c/ded|faaf e2dc|
BFFE F2FE|FABF A2AA|B2BA B/c/dcA|1 B2BA B2dc:|2 B2BA B2BA||
|:B2BA B/c/ded|effe f2fe|fabf a2fd|e2ed e/f/gfe|
dBBA B2Bd|efae f2ff|B2BA B/c/dcA|1 B2BA B2BA:|2 B2BA B2dc||

